X:428
T: ES KANN JA NICHT IMMER SO BLEIBEN
N: E0353A
O: Europa, Mitteleuropa, Deutschland, Wetterau
R: historisches Lied, Krieg, Soldaten (1813 und 1870)
M: 4/4
L: 1/8
K: F
C2 | F2FFA2GF | cGG2z2
GA | B2BBd2cB | c4z2
F2 | d2ddf2ed | dcc2z2
cf | f2Acc2BG | F4z2
F2 | d2ddf2ed | dcc2z2
cf | f2Acc2BG | F4z2

@@@ Tune index: 4078
